X: 17590
T: Hodge's Mill
R: jig
M: 6/8
K: Dmajor
|:D E/D/D AFA|def edB|D E/D/D AFA|BAF ~E3|
D E/D/D AFA|def edB|GBg Fdf|1 edB AFE:|2 edB ABc||
|:dcB cBA|BAF AFA|DED EDE|FDB, B,Bc|
dcB cBA|B/c/dB AFG|AdA B/c/de|1 fdc dBc:|2 fdc d3||

